resources/svg/cplusplus.svg

<svg width="15" height="15" viewBox="0 0 15 15" fill="none" xmlns="http://www.w3.org/2000/svg">
<path fill-rule="evenodd" clip-rule="evenodd" d="M7.5 0.421143L14 4.21281V10.7872L7.5 14.5788L1 10.7872V4.21281L7.5 0.421143ZM6.5 4C4.567 4 3 5.567 3 7.5C3 9.433 4.567 11 6.5 11H7.08579C8.1239 11 9.1195 10.5876 9.85355 9.85355L9.14645 9.14645C8.59993 9.69297 7.85868 10 7.08579 10H6.5C5.11929 10 4 8.88071 4 7.5C4 6.11929 5.11929 5 6.5 5H7.08579C7.85868 5 8.59993 5.30703 9.14645 5.85355L9.85355 5.14645C9.1195 4.41239 8.1239 4 7.08579 4H6.5ZM7 7V6H8V7H10V6H11V7H12V8H11V9H10V8H8V9H7V8H6V7H7Z" fill="black"/>
</svg>

<svg viewBox="0 0 15 15" fill="none" xmlns="http://www.w3.org/2000/svg" fill="currentColor"><path fill-rule="evenodd" clip-rule="evenodd" d="M7.5.421L14 4.213v6.574L7.5 14.58 1 10.787V4.213L7.5.42zM6.5 4a3.5 3.5 0 100 7h.586a3.914 3.914 0 002.768-1.146l-.708-.708a2.914 2.914 0 01-2.06.854H6.5a2.5 2.5 0 010-5h.586a2.91 2.91 0 012.06.854l.708-.708A3.914 3.914 0 007.086 4H6.5zM7 7V6h1v1h2V6h1v1h1v1h-1v1h-1V8H8v1H7V8H6V7h1z" fill="currentColor"/></svg>
